X:1
T:Toots and Hickory
M:6/8
L:1/8
Q:80
C:Danny Edwards
S:Jig
K:HP
|: e | \
{gAGAG}A2{d}ce{g}ce | \
afa{ef}e2c | \
{g}def{g}ec{d}A |
{g}B{d}c{e}A{gBd}B2e | \
{gAGAG}A2{d}ce{g}ce | \
afa{ef}e2f |
ae{A}e{g}fae | \
{g}B{G}Be{g}A2 :: \
e |
ae{A}e{g}ea{g}a | \
fa{g}ae2a | \
{g}afaea{g}a |
dac{gBG}B2e | \
ae{A}e{g}ea{g}a | \
fa{g}ae2f |
ae{A}e{g}fae | \
{g}B{G}Be{g}A2 :: \
e |
{g}Aa{g}acaA | \
{g}def{g}faf | \
{g}ea{g}adac |
{g}B{d}c{e}A{g}B{d}ce | \
{g}Aa{g}acaA | \
{g}def{g}fae |
ae{A}e{g}fae | \
{g}B{G}Be{g}A2 :: \
e |
a{g}a{g}aea{g}a | \
faef{g}de | \
{g}ca{g}a{g}aca |
dac{g}dcB | \
{g}Aa{g}a{cd}c2A | \
{g}da{g}afae |
ae{A}e{g}fae | \
{g}B{G}Be{g}A2 :|
